assets/images/v4/icon-last.svg

<svg fill="none" height="17" viewBox="0 0 17 17" width="17" xmlns="http://www.w3.org/2000/svg"><g fill="#000"><path d="m5.04828 4.1543-.94.94 3.05333 3.06-3.05333 3.06.94.94 4-4z"/><path d="m9.44159 4.1543-.94.94 3.05331 3.06-3.05331 3.06.94.94 4.00001-4z"/></g></svg>

<svg width="17" height="17" viewBox="0 0 17 17" fill="none" xmlns="http://www.w3.org/2000/svg">
<path d="M5.04828 4.1543L4.10828 5.0943L7.16161 8.1543L4.10828 11.2143L5.04828 12.1543L9.04828 8.1543L5.04828 4.1543Z" fill="black"/>
<path d="M9.44159 4.1543L8.50159 5.0943L11.5549 8.1543L8.50159 11.2143L9.44159 12.1543L13.4416 8.1543L9.44159 4.1543Z" fill="black"/>
</svg>
